img/icon-login.svg

<svg width="21" height="17" fill="none" xmlns="http://www.w3.org/2000/svg"><path d="M14.875 8.5L6 0v6H0v5h6v6l8.875-8.5z" fill="#C5C5C5"/><path d="M16.986 15.01h-5.027V17h5.027c2.178 0 3.004-1.81 3.029-3.026V3.028C19.99 1.811 19.164 0 16.986 0h-5.027v1.99h5.027c.839 0 .992.681 1.01 1.057v10.904c-.017.376-.171 1.059-1.01 1.059z" fill="#C5C5C5"/></svg>

<svg width="21" height="17" viewBox="0 0 21 17" fill="none" xmlns="http://www.w3.org/2000/svg">
<path d="M14.875 8.5L6 0V6H0V11H6V17L14.875 8.5Z" fill="#C5C5C5"/>
<path d="M16.986 15.01H11.959V17H16.986C19.164 17 19.99 15.19 20.015 13.974V3.028C19.99 1.811 19.164 0 16.986 0H11.959V1.99H16.986C17.825 1.99 17.978 2.671 17.996 3.047V13.951C17.979 14.327 17.825 15.01 16.986 15.01Z" fill="#C5C5C5"/>
</svg>
